images/install/platform/ubuntu.svg

<svg width="140" height="32" viewBox="0 0 140 32" fill="none" xmlns="http://www.w3.org/2000/svg">
<path d="M16.7574 30.364C15.9057 30.5772 14.7823 30.8031 13.3859 31.0423C11.9896 31.2819 10.3738 31.4011 8.53831 31.4011C6.94242 31.4011 5.59885 31.168 4.50837 30.7034C3.41769 30.2383 2.53998 29.5797 1.87522 28.7282C1.21009 27.8767 0.731306 26.8728 0.438673 25.7157C0.145855 24.5587 0 23.2761 0 21.8655V10.2154H3.71051V21.0674C3.71051 23.5948 4.10944 25.4037 4.90748 26.4938C5.70533 27.5845 7.04834 28.1298 8.93705 28.1298C9.33617 28.1298 9.74804 28.1163 10.1741 28.0893C10.5993 28.0633 10.9981 28.0298 11.3709 27.9897C11.7432 27.9499 12.0821 27.9102 12.3884 27.8703C12.6936 27.8301 12.913 27.7839 13.0465 27.7309V10.2154H16.7572V30.364H16.7574Z" fill="black"/>
<path d="M25.8138 11.133C26.2656 10.8407 26.9509 10.5346 27.8685 10.2156C28.7861 9.89611 29.8435 9.73676 31.0405 9.73676C32.5296 9.73676 33.8535 10.0028 35.0104 10.5344C36.1672 11.0668 37.145 11.8113 37.9428 12.7692C38.741 13.7264 39.3457 14.8705 39.7581 16.2004C40.17 17.5306 40.3767 18.9931 40.3767 20.5888C40.3767 22.2647 40.1303 23.7747 39.6385 25.1175C39.1459 26.4609 38.4477 27.5976 37.5435 28.5285C36.6392 29.4598 35.5489 30.1784 34.2719 30.6829C32.9952 31.1879 31.5589 31.441 29.9628 31.441C28.2336 31.441 26.7044 31.3216 25.3746 31.0824C24.0441 30.843 22.9538 30.6036 22.1029 30.3642V0.639435L25.8134 0.0014801V11.133H25.8138ZM25.8138 27.7307C26.1861 27.8373 26.7111 27.937 27.3897 28.0298C28.0678 28.1231 28.912 28.1693 29.9234 28.1693C31.9182 28.1693 33.5141 27.5109 34.7113 26.1945C35.9081 24.8779 36.5066 23.0093 36.5066 20.5886C36.5066 19.5257 36.4 18.5282 36.1874 17.5963C35.9741 16.6655 35.6289 15.861 35.1501 15.1826C34.6712 14.5041 34.0526 13.9725 33.2949 13.5863C32.5366 13.2012 31.6252 13.008 30.5617 13.008C29.5505 13.008 28.6198 13.1814 27.7689 13.5268C26.9172 13.8728 26.2656 14.2318 25.8138 14.6038V27.7307Z" fill="black"/>
<path d="M61.0837 30.364C60.2322 30.5772 59.1084 30.8031 57.712 31.0423C56.3156 31.2819 54.6999 31.4011 52.8644 31.4011C51.2682 31.4011 49.9248 31.168 48.8345 30.7034C47.7436 30.2383 46.8657 29.5797 46.2013 28.7282C45.536 27.8767 45.0574 26.8728 44.7648 25.7157C44.4722 24.5587 44.3259 23.2761 44.3259 21.8655V10.2154H48.0368V21.0674C48.0368 23.5948 48.4356 25.4037 49.2338 26.4938C50.0316 27.5845 51.3745 28.1298 53.2635 28.1298C53.6621 28.1298 54.0745 28.1163 54.5001 28.0893C54.9251 28.0633 55.3244 28.0298 55.697 27.9897C56.0693 27.9499 56.4086 27.9102 56.7145 27.8703C57.0199 27.8301 57.2395 27.7839 57.373 27.7309V10.2154H61.0835V30.364H61.0837Z" fill="black"/>
<path d="M66.4294 10.814C67.2804 10.6014 68.4102 10.3749 69.8209 10.1354C71.2304 9.89615 72.8533 9.77655 74.6882 9.77655C76.3376 9.77655 77.707 10.0098 78.7977 10.4746C79.888 10.9406 80.7592 11.5917 81.411 12.4297C82.0623 13.2674 82.5217 14.2722 82.7877 15.4421C83.0535 16.613 83.187 17.9028 83.187 19.3125V30.9622H79.4761V20.11C79.4761 18.8336 79.3894 17.7431 79.2166 16.8384C79.0435 15.9348 78.7583 15.2027 78.359 14.6445C77.9597 14.0856 77.4279 13.6802 76.7631 13.4273C76.0972 13.1745 75.273 13.0482 74.2895 13.0482C73.8906 13.0482 73.4774 13.0619 73.0526 13.0881C72.6269 13.1149 72.2211 13.1484 71.8359 13.188C71.4491 13.2279 71.1036 13.2748 70.7982 13.3277C70.4923 13.3813 70.2725 13.4212 70.1398 13.4471V30.9622H66.4296V10.814H66.4294Z" fill="black"/>
<path d="M91.7647 10.2156H99.6245V13.3277H91.7647V22.9027C91.7647 23.9403 91.8438 24.7979 92.0041 25.4761C92.1636 26.1551 92.4026 26.6869 92.7219 27.0722C93.0415 27.4582 93.44 27.731 93.9188 27.8902C94.3976 28.0497 94.9561 28.13 95.5948 28.13C96.7383 28.13 97.643 28.0039 98.3078 27.7508C98.9722 27.4983 99.4249 27.3184 99.6643 27.2123L100.462 30.2448C100.089 30.4309 99.431 30.6703 98.4871 30.9622C97.543 31.2546 96.4725 31.4012 95.2751 31.4012C93.8656 31.4012 92.7019 31.2219 91.7844 30.8627C90.8666 30.5034 90.1283 29.9651 89.57 29.2473C89.0115 28.5285 88.6187 27.6445 88.393 26.5938C88.1669 25.5432 88.0536 24.3261 88.0536 22.943V4.43017L91.7645 3.79222V10.2156H91.7647Z" fill="black"/>
<path d="M119.813 30.364C118.961 30.5772 117.838 30.8031 116.441 31.0423C115.045 31.2819 113.429 31.4011 111.594 31.4011C109.998 31.4011 108.654 31.168 107.564 30.7034C106.473 30.2383 105.595 29.5797 104.93 28.7282C104.265 27.8767 103.786 26.8728 103.494 25.7157C103.201 24.5587 103.055 23.2761 103.055 21.8655V10.2154H106.766V21.0674C106.766 23.5948 107.165 25.4037 107.962 26.4938C108.761 27.5845 110.103 28.1298 111.993 28.1298C112.391 28.1298 112.804 28.1163 113.229 28.0893C113.654 28.0633 114.053 28.0298 114.426 27.9897C114.799 27.9499 115.137 27.9102 115.444 27.8703C115.749 27.8301 115.969 27.7839 116.102 27.7309V10.2154H119.813V30.364Z" fill="black"/>
<path d="M131.621 16.7576C136.249 16.7576 140 13.0063 140 8.37878C140 3.75131 136.249 0 131.621 0C126.994 0 123.242 3.75131 123.242 8.37878C123.242 13.0063 126.994 16.7576 131.621 16.7576Z" fill="#E95420"/>
<path d="M127.273 8.37881C127.273 8.97388 126.791 9.45618 126.195 9.45618C125.6 9.45618 125.118 8.97388 125.118 8.37881C125.118 7.78394 125.6 7.30164 126.195 7.30164C126.79 7.30164 127.273 7.78394 127.273 8.37881ZM133.402 13.6168C133.699 14.1318 134.358 14.3084 134.873 14.0111C135.388 13.7137 135.565 13.0548 135.267 12.5396C134.97 12.0244 134.311 11.8481 133.796 12.1455C133.281 12.443 133.104 13.1018 133.402 13.6168ZM135.267 4.21817C135.565 3.70296 135.389 3.04413 134.873 2.74706C134.358 2.44962 133.699 2.62616 133.402 3.14118C133.104 3.65638 133.281 4.31522 133.796 4.61247C134.311 4.91028 134.97 4.73356 135.267 4.21817ZM131.621 5.30681C133.227 5.30681 134.544 6.53724 134.681 8.1067L136.24 8.0823C136.167 6.91583 135.661 5.86712 134.881 5.09367C134.468 5.25302 133.99 5.23139 133.576 4.99273C133.163 4.75408 132.905 4.34997 132.837 3.91222C132.449 3.80704 132.042 3.75066 131.621 3.75066C130.884 3.75066 130.187 3.92313 129.568 4.22982L130.327 5.59205C130.72 5.40941 131.159 5.30681 131.621 5.30681ZM128.549 8.37881C128.549 7.33953 129.065 6.42078 129.855 5.8649L129.055 4.52707C128.128 5.14617 127.437 6.0908 127.146 7.19793C127.49 7.47577 127.712 7.90132 127.712 8.37881C127.712 8.85649 127.491 9.28204 127.146 9.55988C127.437 10.6672 128.128 11.6118 129.055 12.2311L129.855 10.8931C129.065 10.3372 128.549 9.41847 128.549 8.37881ZM131.621 11.4514C131.159 11.4514 130.72 11.3488 130.327 11.1658L129.568 12.528C130.187 12.8349 130.884 13.0072 131.621 13.0072C132.041 13.0072 132.449 12.951 132.836 12.8458C132.905 12.4078 133.163 12.0037 133.576 11.7653C133.989 11.5266 134.468 11.505 134.881 11.6643C135.66 10.8905 136.166 9.84179 136.24 8.67551L134.681 8.65111C134.544 10.2206 133.227 11.4514 131.621 11.4514Z" fill="white"/>
</svg>

<svg xmlns="http://www.w3.org/2000/svg" fill="none" viewBox="0 0 140 32"><defs/><path fill="#000" d="M16.757 30.364c-.851.213-1.975.44-3.371.678-1.396.24-3.012.36-4.848.36-1.596 0-2.94-.234-4.03-.699-1.09-.465-1.968-1.123-2.633-1.975C1.21 27.877.731 26.873.44 25.716.146 24.559 0 23.276 0 21.866v-11.65h3.71v10.851c0 2.528.4 4.337 1.197 5.427.798 1.09 2.141 1.636 4.03 1.636.4 0 .811-.014 1.237-.04.425-.027.824-.06 1.197-.1a44.8 44.8 0 001.017-.12c.306-.04.525-.086.659-.14V10.216h3.71v20.149zM25.814 11.133c.452-.292 1.137-.598 2.055-.917.917-.32 1.974-.48 3.172-.48 1.489 0 2.812.267 3.97.798a8.253 8.253 0 012.932 2.235c.798.957 1.403 2.101 1.815 3.431.412 1.33.619 2.793.619 4.389 0 1.676-.247 3.186-.739 4.529s-1.19 2.48-2.094 3.41c-.905.932-1.995 1.65-3.272 2.155-1.277.505-2.713.758-4.31.758-1.728 0-3.258-.12-4.587-.359-1.33-.239-2.421-.478-3.272-.718V.64l3.71-.638v11.132zm0 16.598c.372.106.897.206 1.576.299.678.093 1.522.14 2.533.14 1.995 0 3.591-.66 4.788-1.976 1.197-1.316 1.796-3.185 1.796-5.605 0-1.063-.107-2.06-.32-2.993-.213-.93-.558-1.735-1.037-2.413a5.025 5.025 0 00-1.855-1.597c-.758-.385-1.67-.578-2.733-.578-1.012 0-1.942.173-2.793.519-.852.346-1.503.705-1.955 1.077V27.73zM61.084 30.364c-.852.213-1.976.44-3.372.678-1.396.24-3.012.36-4.848.36-1.596 0-2.94-.234-4.03-.699-1.09-.465-1.968-1.123-2.633-1.975-.665-.851-1.144-1.855-1.436-3.012-.293-1.157-.44-2.44-.44-3.85v-11.65h3.712v10.851c0 2.528.399 4.337 1.197 5.427.798 1.09 2.14 1.636 4.03 1.636.398 0 .81-.014 1.236-.04.425-.027.824-.06 1.197-.1.372-.04.712-.08 1.017-.12.306-.04.526-.086.659-.14V10.216h3.71v20.149zM66.43 10.814c.85-.213 1.98-.44 3.39-.679 1.41-.239 3.033-.358 4.868-.358 1.65 0 3.019.233 4.11.698 1.09.466 1.961 1.117 2.613 1.955.651.837 1.11 1.842 1.377 3.012.266 1.171.399 2.46.399 3.87v11.65h-3.71V20.11c0-1.276-.088-2.367-.26-3.272-.174-.903-.459-1.635-.858-2.194a3.397 3.397 0 00-1.596-1.217c-.666-.252-1.49-.379-2.474-.379-.398 0-.812.014-1.236.04-.426.027-.832.06-1.217.1-.387.04-.732.087-1.038.14a39.31 39.31 0 00-.658.12v17.514h-3.71V10.814zM91.765 10.216h7.86v3.112h-7.86v9.575c0 1.037.079 1.895.24 2.573.159.68.398 1.21.717 1.596.32.386.718.659 1.197.818.479.16 1.037.24 1.676.24 1.143 0 2.048-.126 2.713-.38a32.415 32.415 0 001.356-.538l.798 3.033c-.373.186-1.031.425-1.975.717-.944.293-2.014.44-3.212.44-1.41 0-2.573-.18-3.49-.54-.918-.359-1.657-.897-2.215-1.615-.558-.718-.951-1.602-1.177-2.653-.226-1.05-.34-2.268-.34-3.651V4.43l3.712-.638v6.424zM119.813 30.364c-.852.213-1.975.44-3.372.678-1.396.24-3.012.36-4.847.36-1.596 0-2.94-.234-4.03-.699-1.091-.465-1.969-1.123-2.634-1.975-.665-.851-1.144-1.855-1.436-3.012-.293-1.157-.439-2.44-.439-3.85v-11.65h3.711v10.851c0 2.528.399 4.337 1.196 5.427.799 1.09 2.141 1.636 4.031 1.636.398 0 .811-.014 1.236-.04.425-.027.824-.06 1.197-.1.373-.04.711-.08 1.018-.12.305-.04.525-.086.658-.14V10.216h3.711v20.149z"/><path fill="#E95420" d="M131.621 16.758a8.379 8.379 0 100-16.758 8.38 8.38 0 000 16.758z"/><path fill="#fff" d="M127.273 8.379a1.077 1.077 0 11-2.154 0 1.077 1.077 0 012.154 0zm6.129 5.238a1.077 1.077 0 101.865-1.077 1.077 1.077 0 00-1.865 1.077zm1.865-9.399a1.077 1.077 0 10-1.865-1.077 1.077 1.077 0 001.865 1.077zm-3.646 1.089a3.07 3.07 0 013.06 2.8l1.559-.025a4.606 4.606 0 00-1.359-2.988 1.513 1.513 0 01-2.044-1.182 4.638 4.638 0 00-3.269.318l.759 1.362a3.065 3.065 0 011.294-.285zm-3.072 3.072c0-1.04.516-1.958 1.306-2.514l-.8-1.338a4.634 4.634 0 00-1.909 2.67 1.516 1.516 0 010 2.363 4.635 4.635 0 001.909 2.671l.8-1.338a3.068 3.068 0 01-1.306-2.514zm3.072 3.072a3.06 3.06 0 01-1.294-.285l-.759 1.362a4.63 4.63 0 003.268.318 1.515 1.515 0 012.045-1.182 4.618 4.618 0 001.359-2.988l-1.559-.025a3.071 3.071 0 01-3.06 2.8z"/></svg>
